X:355
T:Lincolnshire Poacher
M:6/8
L:1/8
K:G
D | G2 GG-F E | D2- C B,2 D | G2 G A2 F | G3- G z D | 
G2 A B2 c | d2- B G2 A | B2 BB-A G | A3- A z D | 
G2 A B2 c | d2- B G2 A | B2 BB-A G | A3 B2 A | 
G2 G GFE | D2 C B,2 D/2D/2 | G2 G A2 F | G3- G z || 

